X: 100461
T: CALEDONIAS' WAIL FOR NEIL GOW STRATHSPEY
R: strathspey
B: K\"ohler's Violin Repository, v.3, 1885 p.288 #3
F: http://www.archive.org/details/klersviolinrepos03rugg
Z: 2011 John Chambers <jc:trillian.mit.edu>
N: Shortened last two notes of bar 6 to match other similar bars.
M: C|
L: 1/8
K: Bm
(uF/E/) |\
D<B,(B,>C) (D>E)F>B | A<F(F>E) (C>A,) A,(F/E/) |\
(D<B,)(B,>C) (D>E)Fg | (fd) (e/d/c/d/) FBB :|
(uf/a/) |\
(.b>.c')(d'>c') (.b>.a)(f>b) | (.a>.f) (ef/e/) dAA (f/a/) |\
(.b>.c')(d'>c') (.b>.a) (g/a/b/c'/) | (.d'>.f) (e/d/)c/d/ (B/d/)f/d/ (Bd/e/) |
fd'd' (f/d/) caa (d/c/) | (B>c) (d/c/d/e/) fBB (D/E/) |\
[FD][FD][FD] (C/D/) [EC][EC][EC] (D/C/) | (B,/A,/)C/D/ (F^A,) B,3 |]

%%sep 2 1 500

